X:1019
T: Koga me mama rodila
O: Bulgaria
F: https://www.youtube.com/watch?v=zj8WfLi41b8
W:transcribed by Jutta Weber-Karn
W:http://www.folkloretanznoten.de/
W:converted to abc notation without the lyrics
W:and accompaniment
M: 4/4
L: 1/8
K: Dm
Q: 1/4 = 120
%%MIDI program 24 Acoustic Guitar
DAd fdA fd|DBd e-e4|DAd fdA fd|DBd e-e4|
GBdg dBgd| FBdg-g4|eBde dBed|EAde-e4|
EBde dBed|EAde-e4|DA2 dA2 d2|Z|
A,D2 E FE D2|F4 GFED|
A,D2 E FE D2|A4 G2F2|E G2 FE2D2|
A,4 GFED|DE2 D^C2B,2|A,3 DD2D2|
